build/TerriaJS/images/icons/recapture.svg

<?xml version="1.0" encoding="UTF-8"?>
<svg width="20px" height="20px" viewBox="0 0 20 20" version="1.1" xmlns="http://www.w3.org/2000/svg" xmlns:xlink="http://www.w3.org/1999/xlink">
    <!-- Generator: Sketch 54.1 (76490) - https://sketchapp.com -->
    <title>icon/recapture-20</title>
    <desc>Created with Sketch.</desc>
    <defs>
        <path d="M13,4 C12.4477153,4 12,3.55228475 12,3 C12,2.44771525 12.4477153,2 13,2 L16,2 C17.1045695,2 18,2.8954305 18,4 L18,7 C18,7.55228475 17.5522847,8 17,8 C16.4477153,8 16,7.55228475 16,7 L16,4 L13,4 Z M16,13 C16,12.4477153 16.4477153,12 17,12 C17.5522847,12 18,12.4477153 18,13 L18,16 C18,17.1045695 17.1045695,18 16,18 L13,18 C12.4477153,18 12,17.5522847 12,17 C12,16.4477153 12.4477153,16 13,16 L16,16 L16,13 Z M7,16 C7.55228475,16 8,16.4477153 8,17 C8,17.5522847 7.55228475,18 7,18 L4,18 C2.8954305,18 2,17.1045695 2,16 L2,13 C2,12.4477153 2.44771525,12 3,12 C3.55228475,12 4,12.4477153 4,13 L4,16 L7,16 Z M4,7 C4,7.55228475 3.55228475,8 3,8 C2.44771525,8 2,7.55228475 2,7 L2,4 C2,2.8954305 2.8954305,2 4,2 L7,2 C7.55228475,2 8,2.44771525 8,3 C8,3.55228475 7.55228475,4 7,4 L4,4 L4,7 Z M12.2474165,7.34147387 C12.6110985,6.92583724 13.2428612,6.88371973 13.6584978,7.24740179 C14.0741344,7.61108384 14.1162519,8.24284646 13.7525699,8.65848309 L10.2525699,12.6584831 C9.87164859,13.0938217 9.20192229,13.1161212 8.7928864,12.7070853 L6.7928864,10.7070853 C6.4023621,10.316561 6.4023621,9.68339599 6.7928864,9.2928717 C7.18341069,8.90234741 7.81657567,8.90234741 8.20709996,9.2928717 L9.45128312,10.5370549 L12.2474165,7.34147387 Z" id="path-1"></path>
    </defs>
    <g id="icon/recapture-20" stroke="none" stroke-width="1">
        <mask id="mask-2" fill="white">
            <use xlink:href="#path-1"></use>
        </mask>
        <use id="Rectangle-2" fill="#4D5766" fill-rule="nonzero" xlink:href="#path-1"></use>
        <g id="colour/@black" mask="url(#mask-2)">
            <rect id="Fill" x="0" y="0" width="20" height="20"></rect>
        </g>
    </g>
</svg>

<svg xmlns="http://www.w3.org/2000/svg" width="20" height="20">
    <defs>
        <path id="a" d="M13 4a1 1 0 0 1 0-2h3a2 2 0 0 1 2 2v3a1 1 0 0 1-2 0V4zm3 9a1 1 0 0 1 2 0v3a2 2 0 0 1-2 2h-3a1 1 0 0 1 0-2h3zm-9 3a1 1 0 0 1 0 2H4a2 2 0 0 1-2-2v-3a1 1 0 0 1 2 0v3zM4 7a1 1 0 1 1-2 0V4a2 2 0 0 1 2-2h3a1 1 0 1 1 0 2H4zm8.247.341a1 1 0 1 1 1.506 1.317l-3.5 4a1 1 0 0 1-1.46.05l-2-2a1 1 0 0 1 1.414-1.415l1.244 1.244z"/>
    </defs>
    <mask id="b" fill="#fff">
        <use href="#a"/>
    </mask>
    <use fill="#4d5766" href="#a"/>
    <g mask="url(#b)">
        <path d="M0 0h20v20H0z"/>
    </g>
</svg>
